X:1
T:G Major                 Jeremiah Ingalls, 1805
T:John Newton, 1779 (Hymn 81, Book 1)                 66. 66. 88.
T:Beggar's Prayer
T:Transcribed from Ingalls' Christian Harmony, 1805.
%%score [ 1 2 3 ]
L:1/8
Q:1/4=180
M:4/4
K:G
V:1 treble nm="Tr." snm="Tr."
V:2 treble-8 nm="T." snm="T."
V:3 bass nm="B." snm="B."
V:1
"^3.   I      have   no  right   to    say        That  though  I  now am  poor,      Yet   once  there  was  a   day      When  I   pos – ses – sed  more:""^2. The   beg – gar’s  u –sual   plea,      Re –lief  from  men  to    gain,         If     of–fered un –  to     thee,     I  know thou would’st disdain:""^1.  En–cou–raged  by  thy  word       Of   pro–mise  to   the    poor;       Be – hold,  a   beg – gar,  Lord,  Waits  at   thy  mer – cy’s  door!" A4 | %1
 B2 A2 G2 A2 | B6 B2 | c2 c2 B2 A2 | G6 A2 | B2 A2 G2 A2 | B6 B2 | c2 c2 B2 A2 | G8 | %9
 z4"^1.  No   hand,  no  heart,  O  Lord,  but  thine,   Can   help  or    pi  –  ty  wants  like  mine.""^2. And pleas which move  thy  gracious  ear,    Are  such  as   men would  scorn  to  hear.""^3.  Thou   know’st   that from my very birth,    I’ve  been  the  poorest  wretch  on earth." d4 | %10
 c2 B2 e4 | d4 d2 B2 | e4 d4 | d2 B2 e4 | d4 d2 c2 | B8 |] %16
V:2
"^6. Though crumbs are much too good  For  such   a   dog   as    I;          No  less  than  children’s  food     My  soul  can   sa  – tis  –   fy:""^5. ’Twere  fol – ly  to     pre – tend       I     ne –ver  begged  before;          Or     if    thou now befriend,       I’ll   trou –  ble  thee  no  more:""^4.  Nor    can    I   dare  pro – fess,      As   beg– gars  of – ten   do,       Though  great  is  my  distress,      My  wants have  been but few:" D4 | %1
 G2 A2 B2 c2 | d6 d2 | e2 e2 d2 c2 | B6 A2 | G2 A2 B2 c2 | d6 d2 | e2 e2 d2 c2 | B8 | %9
 z4"^4.  If    thou shouldst leave my soul  to  starve,   It    would  be  what   I   well   de–serve.""^5. Thou  of – ten  hast   re  –  lieved  my   pain,  And  of   –  ten   I   must  come  a – gain.""^6.  O     do    not   frown   and    bid    me    go,      I    must   have  all  thou  canst  bestow." d4 | %10
 B2 dB G4 | B4 A2 BG | E4 G4 | D2 EF G4 | B4 A2 A2 | G8 |] %16
V:3
"^8. Thy thoughts, thou only wise! Our thoughts and ways transcend,  Far   as   the  ar –ched  skies       A  –  bove  the  earth  ex–tend:""^7.  Nor    can   I     wil – ling   be          Thy   bounty   to    con –  ceal     From  o–thers, who like  me,       Their  wants  and hunger  feel:" D,4 | %1
 G,2 D,2 B,,2 D,2 | G,6 G,2 | C,2 C,2 D,2 D,2 | G,6 D,2 | G,2 D,2 B,,2 D,2 | G,6 G,2 | %7
 C,2 C,2 D,2 D,2 | [G,,G,]8 | %9
 z4"^7.  I’ll     tell   them   of    thy  mer–cy’s  store,   And   try   to    send    a   thousand  more.""^8. Such  pleas  as  mine  men would not bear,   But  God  re – ceives a   beg–gar’s  prayer." B,4 | %10
 G,2 B,G, E,4 | G,4 D,2 G,2 | B,4 B,4 | A,2 G,2 E,4 | G,4 D,2 D,2 | [G,,G,]8 |] %16

